X:463
T: An Liebchens Tr (174), S. 384
N: T0351
O: Luxemburg
S: Singendes Volk, Esch-Alzette, 1937 posth.]
N: Heffingen, ? M. Seiler, 12.3.1933
R: Tage-. Wchter-, Fenstergang-, Stndchenlieder, Liebeslied]
M: 3/4
L: 1/16
K: G
G2A2G2 | G2A2B2d2d2BA | A4z2
A2B2A2 | A2B2c2e2e2dc | B4z2
d2d2B2 | d2B2d2d2d2d2 | B2e2e2
e2d2c2 | c4A2d2d2c2 | B2z4

@@@ Tune index: 8517
